X: 4400
M: 3/4
L: 1/8
K: D
|:\
fff2A2 | fff2A2 | f2g3^d | e6 |\
eee2A2 | eee2A2 |[1,3 e2f3c | d6 :|[2,4 a2e3f | d2z2z2 :|


